Adwaita++/actions/16/distribute-horizontal-page.svg

<svg height="16" viewBox="0 0 16 16" width="16" xmlns="http://www.w3.org/2000/svg">
  <path d="m1 .98046875v14.00000025h11l3-3v-11.00000025zm2 2.00000005h10v10.0000002h-10zm1 1v8.0000002h3v-8.0000002zm5 0v8.0000002h3v-8.0000002z" fill="#474747"/>
</svg>

<svg xmlns="http://www.w3.org/2000/svg" width="16" height="16" viewBox="0 0 16 16">
 <defs>
  <style id="current-color-scheme" type="text/css">
   .ColorScheme-Text { color:#474747; } .ColorScheme-Highlight { color:#4285f4; }
  </style>
 </defs>
 <path style="fill:currentColor" class="ColorScheme-Text" d="M 1 0.98046875 L 1 14.980469 L 12 14.980469 L 15 11.980469 L 15 0.98046875 L 1 0.98046875 z M 3 2.9804688 L 13 2.9804688 L 13 12.980469 L 3 12.980469 L 3 2.9804688 z M 4 3.9804688 L 4 11.980469 L 7 11.980469 L 7 3.9804688 L 4 3.9804688 z M 9 3.9804688 L 9 11.980469 L 12 11.980469 L 12 3.9804688 L 9 3.9804688 z"/>
</svg>
